X:1
T:O Jesu Christ, LM
T:O Jesu Christ, LM
T:Paschasius Reinigius, 1587
T:Public Domain Courtesy of the Cyber Hymnal™
C:Paschasius Reinigius, 1587
Z:Public Domain
Z:Courtesy of the Cyber Hymnal™
%%score ( 1 2 ) ( 3 4 )
L:1/8
Q:1/4=110
M:4/4
K:Bb
V:1 treble 
V:2 treble 
V:3 bass 
V:4 bass 
V:1
 [DG]2 | [EG]2 [EG]2 [EF]2 [DF]2 | [EB]2 [Ec]2 [Dd]2 [Gd]2 | [Ge]2 [Fd]2 [Gc]2 B2 | %4
 c2 z [DB]2 [DB]2 x | [Fc]2 [Gc]2 [^Fd]2 [DG]2 | ([GB]A) z F2 [CF]2 x | [EB]2 [Ec]2 [Dd]2 [EB]2 x | %8
 c3 z B z x6 |] %9
V:2
 x2 | x8 | x8 | x6 (D=E) | F3 (c2 E) x2 | x8 | x F2 (G2 =E) F2 | x9 | E2 (D3 A4 C) A,2 |] %9
V:3
 [G,=B,]2 | [C,C]2 [B,,C]2 [A,,C]2 [B,,B,]2 | [G,,B,]2 [F,,A,]2 [B,,B,]2 [G,,=B,]2 | %3
 (CB,) [D,A,]2 [E,G,]2 [G,B,]2 | (B,G,) [F,A,]2 [B,,B,]2 [G,B,]2 | %5
 [F,A,]2 [E,G,]2 A,2 [B,,B,][A,,C] | ([G,,D][A,,C]) [C,C]2 [F,,A,]2 [F,A,]2 | %7
 G,3 z B, [B,,C]2 [E,G,]2 | G,6 z2 ^F,2 x2 |] %9
V:4
 x2 | x8 | x8 | C,2 x6 | F,2 x6 | x4 (D,C,) x2 | x8 | (E,D,) C,2 x5 | C,2 G,,2 D,4 x4 |] %9

